X:1
T:John MacAnanty's Courtship
S:P.W.Joyce, Old Irish Folk Music and Songs
F:http://www.faeriemagazine.com/forum/topic.asp?TOPIC_ID=38	2008-3-20
K:D
M:3/4
D2|D2 D2 DE|G4 A G|E2 D2 D2|D4 F G|A2 A2 B2|
=c2 A2 G2|A2 d2 d2|d4 c d|e2 d2 c2|d4 c B|
A2 F2 D2|E4 GA|Bc D2 cA|G2 E2 E2|D4 D2|D4|]
